TCanvas/fit2_1.svg

<svg xmlns="http://www.w3.org/2000/svg" viewBox="0 0 1200 800" preserveAspectRatio="none" width="1200" height="800">
 <path d="M0,0H1200V800H0Z" style="fill: white;"></path>
 <g>
  <g transform="translate(120,80)">
   <path d="M0,0H960V640H0Z" style="fill: white; stroke: black; stroke-width: 1;"></path>
   <g>
    <path d="M147,0v640M311,0v640M476,0v640M640,0v640M804,0v640" style="stroke: black; stroke-width: 1; stroke-dasharray: 1,2;"></path>
    <path d="M0,633h960M0,563h960M0,493h960M0,423h960M0,353h960M0,283h960M0,213h960M0,143h960M0,73h960M0,3h960" style="stroke: black; stroke-width: 1; stroke-dasharray: 1,2;"></path>
   </g>
   <svg x="0" y="0" overflow="hidden" width="960" height="640" viewBox="0 0 960 640">
    <g>
     <path d="M438,73l8,8m0,-8l-8,8m0,-4h8m-4,-4v8M429,69l8,8m0,-8l-8,8m0,-4h8m-4,-4v8M396,77l8,8m0,-8l-8,8m0,-4h8m-4,-4v8M390,83l8,8m0,-8l-8,8m0,-4h8m-4,-4v8M358,89l8,8m0,-8l-8,8m0,-4h8m-4,-4v8M338,113l8,8m0,-8l-8,8m0,-4h8m-4,-4v8M324,115l8,8m0,-8l-8,8m0,-4h8m-4,-4v8M310,129l8,8m0,-8l-8,8m0,-4h8m-4,-4v8M282,138l8,8m0,-8l-8,8m0,-4h8m-4,-4v8M246,138l8,8m0,-8l-8,8m0,-4h8m-4,-4v8M223,153l8,8m0,-8l-8,8m0,-4h8m-4,-4v8M209,175l8,8m0,-8l-8,8m0,-4h8m-4,-4v8M202,195l8,8m0,-8l-8,8m0,-4h8m-4,-4v8M195,209l8,8m0,-8l-8,8m0,-4h8m-4,-4v8M153,216l8,8m0,-8l-8,8m0,-4h8m-4,-4v8M139,231l8,8m0,-8l-8,8m0,-4h8m-4,-4v8M128,260l8,8m0,-8l-8,8m0,-4h8m-4,-4v8M138,271l8,8m0,-8l-8,8m0,-4h8m-4,-4v8M125,278l8,8m0,-8l-8,8m0,-4h8m-4,-4v8M121,298l8,8m0,-8l-8,8m0,-4h8m-4,-4v8M96,322l8,8m0,-8l-8,8m0,-4h8m-4,-4v8M100,337l8,8m0,-8l-8,8m0,-4h8m-4,-4v8M97,333l8,8m0,-8l-8,8m0,-4h8m-4,-4v8M98,360l8,8m0,-8l-8,8m0,-4h8m-4,-4v8M76,380l8,8m0,-8l-8,8m0,-4h8m-4,-4v8M86,400l8,8m0,-8l-8,8m0,-4h8m-4,-4v8M93,417l8,8m0,-8l-8,8m0,-4h8m-4,-4v8M101,420l8,8m0,-8l-8,8m0,-4h8m-4,-4v8M84,439l8,8m0,-8l-8,8m0,-4h8m-4,-4v8M113,452l8,8m0,-8l-8,8m0,-4h8m-4,-4v8M103,467l8,8m0,-8l-8,8m0,-4h8m-4,-4v8M109,475l8,8m0,-8l-8,8m0,-4h8m-4,-4v8M143,487l8,8m0,-8l-8,8m0,-4h8m-4,-4v8M156,502l8,8m0,-8l-8,8m0,-4h8m-4,-4v8M154,514l8,8m0,-8l-8,8m0,-4h8m-4,-4v8M157,527l8,8m0,-8l-8,8m0,-4h8m-4,-4v8M164,532l8,8m0,-8l-8,8m0,-4h8m-4,-4v8M188,546l8,8m0,-8l-8,8m0,-4h8m-4,-4v8M209,558l8,8m0,-8l-8,8m0,-4h8m-4,-4v8M241,545l8,8m0,-8l-8,8m0,-4h8m-4,-4v8M263,556l8,8m0,-8l-8,8m0,-4h8m-4,-4v8M274,577l8,8m0,-8l-8,8m0,-4h8m-4,-4v8M299,567l8,8m0,-8l-8,8m0,-4h8m-4,-4v8M335,563l8,8m0,-8l-8,8m0,-4h8m-4,-4v8M353,583l8,8m0,-8l-8,8m0,-4h8m-4,-4v8M379,581l8,8m0,-8l-8,8m0,-4h8m-4,-4v8M394,576l8,8m0,-8l-8,8m0,-4h8m-4,-4v8M410,571l8,8m0,-8l-8,8m0,-4h8m-4,-4v8M438,572l8,8m0,-8l-8,8m0,-4h8m-4,-4v8M459,562l8,8m0,-8l-8,8m0,-4h8m-4,-4v8M504,554l8,8m0,-8l-8,8m0,-4h8m-4,-4v8M531,563l8,8m0,-8l-8,8m0,-4h8m-4,-4v8M552,540l8,8m0,-8l-8,8m0,-4h8m-4,-4v8M574,545l8,8m0,-8l-8,8m0,-4h8m-4,-4v8M579,545l8,8m0,-8l-8,8m0,-4h8m-4,-4v8M620,519l8,8m0,-8l-8,8m0,-4h8m-4,-4v8M613,522l8,8m0,-8l-8,8m0,-4h8m-4,-4v8M667,494l8,8m0,-8l-8,8m0,-4h8m-4,-4v8M679,494l8,8m0,-8l-8,8m0,-4h8m-4,-4v8M706,470l8,8m0,-8l-8,8m0,-4h8m-4,-4v8M709,466l8,8m0,-8l-8,8m0,-4h8m-4,-4v8M734,444l8,8m0,-8l-8,8m0,-4h8m-4,-4v8M731,439l8,8m0,-8l-8,8m0,-4h8m-4,-4v8M776,425l8,8m0,-8l-8,8m0,-4h8m-4,-4v8M779,411l8,8m0,-8l-8,8m0,-4h8m-4,-4v8M809,402l8,8m0,-8l-8,8m0,-4h8m-4,-4v8M823,381l8,8m0,-8l-8,8m0,-4h8m-4,-4v8M835,352l8,8m0,-8l-8,8m0,-4h8m-4,-4v8M849,344l8,8m0,-8l-8,8m0,-4h8m-4,-4v8M827,340l8,8m0,-8l-8,8m0,-4h8m-4,-4v8M843,325l8,8m0,-8l-8,8m0,-4h8m-4,-4v8M857,308l8,8m0,-8l-8,8m0,-4h8m-4,-4v8M843,285l8,8m0,-8l-8,8m0,-4h8m-4,-4v8M876,263l8,8m0,-8l-8,8m0,-4h8m-4,-4v8M863,264l8,8m0,-8l-8,8m0,-4h8m-4,-4v8M862,232l8,8m0,-8l-8,8m0,-4h8m-4,-4v8M840,216l8,8m0,-8l-8,8m0,-4h8m-4,-4v8M868,210l8,8m0,-8l-8,8m0,-4h8m-4,-4v8M845,199l8,8m0,-8l-8,8m0,-4h8m-4,-4v8M840,176l8,8m0,-8l-8,8m0,-4h8m-4,-4v8M827,178l8,8m0,-8l-8,8m0,-4h8m-4,-4v8M837,146l8,8m0,-8l-8,8m0,-4h8m-4,-4v8M799,151l8,8m0,-8l-8,8m0,-4h8m-4,-4v8M811,130l8,8m0,-8l-8,8m0,-4h8m-4,-4v8M778,134l8,8m0,-8l-8,8m0,-4h8m-4,-4v8M791,118l8,8m0,-8l-8,8m0,-4h8m-4,-4v8M758,112l8,8m0,-8l-8,8m0,-4h8m-4,-4v8M739,86l8,8m0,-8l-8,8m0,-4h8m-4,-4v8M725,72l8,8m0,-8l-8,8m0,-4h8m-4,-4v8M709,76l8,8m0,-8l-8,8m0,-4h8m-4,-4v8M684,67l8,8m0,-8l-8,8m0,-4h8m-4,-4v8M648,65l8,8m0,-8l-8,8m0,-4h8m-4,-4v8M654,73l8,8m0,-8l-8,8m0,-4h8m-4,-4v8M630,49l8,8m0,-8l-8,8m0,-4h8m-4,-4v8M608,61l8,8m0,-8l-8,8m0,-4h8m-4,-4v8M562,49l8,8m0,-8l-8,8m0,-4h8m-4,-4v8M551,52l8,8m0,-8l-8,8m0,-4h8m-4,-4v8M540,59l8,8m0,-8l-8,8m0,-4h8m-4,-4v8M513,70l8,8m0,-8l-8,8m0,-4h8m-4,-4v8M491,75l8,8m0,-8l-8,8m0,-4h8m-4,-4v8" style="stroke: black; fill: none;"></path>
    </g>
   </svg>
   <g>
    <g transform="translate(0,640)">
     <path d="M0,0h960M24,-12v12m41,-12v12m41,-12v12m41,-24v24m41,-12v12m41,-12v12m41,-12v12m41,-24v24m41,-12v12m42,-12v12m41,-12v12m41,-24v24m41,-12v12m41,-12v12m41,-12v12m41,-24v24m41,-12v12m41,-12v12m41,-12v12m41,-24v24m42,-12v12m41,-12v12m41,-12v12" style="stroke: black; stroke-width: 1;"></path>
     <g font-family="Arial" font-size="28" space="preserve" fill="black" text-anchor="middle">
      <text dy=".8em" transform="translate(147,6)">
       -14
      </text>
      <text dy=".8em" transform="translate(311,6)">
       -12
      </text>
      <text dy=".8em" transform="translate(476,6)">
       -10
      </text>
      <text dy=".8em" transform="translate(640,6)">
       -8
      </text>
      <text dy=".8em" transform="translate(804,6)">
       -6
      </text>
     </g>
    </g>
    <g>
     <path d="M0,0v640M36,633h-36m18,-14h-18m18,-14h-18m18,-14h-18m18,-14h-18m36,-14h-36m18,-14h-18m18,-14h-18m18,-14h-18m18,-14h-18m36,-14h-36m18,-14h-18m18,-14h-18m18,-14h-18m18,-14h-18m36,-14h-36m18,-14h-18m18,-14h-18m18,-14h-18m18,-14h-18m36,-14h-36m18,-14h-18m18,-14h-18m18,-14h-18m18,-14h-18m36,-14h-36m18,-14h-18m18,-14h-18m18,-14h-18m18,-14h-18m36,-14h-36m18,-14h-18m18,-14h-18m18,-14h-18m18,-14h-18m36,-14h-36m18,-14h-18m18,-14h-18m18,-14h-18m18,-14h-18m36,-14h-36m18,-14h-18m18,-14h-18m18,-14h-18m18,-14h-18m36,-14h-36" style="stroke: black; stroke-width: 1;"></path>
     <g font-family="Arial" font-size="28" space="preserve" fill="black" text-anchor="end">
      <text dy=".4em" transform="translate(-4,633)">
       4.5
      </text>
      <text dy=".4em" transform="translate(-4,563)">
       5
      </text>
      <text dy=".4em" transform="translate(-4,493)">
       5.5
      </text>
      <text dy=".4em" transform="translate(-4,423)">
       6
      </text>
      <text dy=".4em" transform="translate(-4,353)">
       6.5
      </text>
      <text dy=".4em" transform="translate(-4,283)">
       7
      </text>
      <text dy=".4em" transform="translate(-4,213)">
       7.5
      </text>
      <text dy=".4em" transform="translate(-4,143)">
       8
      </text>
      <text dy=".4em" transform="translate(-4,73)">
       8.5
      </text>
      <text dy=".4em" transform="translate(-4,3)">
       9
      </text>
     </g>
    </g>
   </g>
  </g>
  <g>
   <path transform="translate(597,400)" d="M386,-78l-1,-8l-1,-7l-2,-8l-2,-7l-2,-8l-3,-7l-3,-7l-3,-7l-4,-7l-4,-6l-4,-7l-5,-6l-5,-7l-6,-6l-5,-6l-6,-5l-7,-6l-7,-5l-7,-5l-7,-5l-8,-5l-8,-4l-8,-5l-9,-4l-9,-4l-9,-3l-9,-4l-10,-3l-9,-3l-10,-3l-11,-2l-10,-2l-11,-2l-10,-2l-11,-1l-11,-2l-12,-1h-11l-12,-1h-11h-12l-12,1h-12l-12,1l-12,1l-12,1l-12,2l-12,2l-12,2l-12,2l-12,3l-12,3l-13,3l-12,3l-11,3l-12,4l-12,4l-12,4l-11,5l-12,4l-11,5l-11,5l-11,6l-11,5l-10,6l-11,5l-10,6l-10,7l-10,6l-10,6l-9,7l-9,7l-9,7l-9,7l-8,7l-8,7l-8,8l-7,7l-7,8l-7,7l-7,8l-6,8l-6,8l-5,8l-5,8l-5,8l-5,8l-4,8l-4,8l-3,8l-3,8l-3,9l-2,8l-2,8l-2,8l-1,8l-1,8v8v8v7l1,8l1,8l2,7l2,8l2,7l2,7l3,7l4,7l3,7l5,7l4,6l5,7l5,6l5,6l6,6l6,6l7,5l7,6l7,5l7,5l8,4l8,5l8,4l9,4l8,4l10,4l9,3l9,3l10,3l10,3l10,2l11,3l11,2l10,1l11,2l11,1l12,1l11,1h12h11h12h12l12,-1h12l12,-2l12,-1l12,-1l12,-2l12,-2l12,-3l12,-2l12,-3l12,-3l12,-3l12,-4l12,-4l12,-4l12,-4l11,-4l12,-5l11,-5l11,-5l11,-5l11,-6l10,-5l11,-6l10,-6l10,-6l10,-6l10,-7l9,-7l9,-6l9,-7l8,-7l9,-7l8,-8l8,-7l7,-8l7,-7l7,-8l7,-8l6,-7l6,-8l5,-8l5,-8l5,-8l5,-8l4,-9l4,-8l3,-8l3,-8l3,-8l2,-8l2,-8l1,-8l2,-8v-8l1,-8v-8Z" style="stroke: black; stroke-width: 1; fill: none;"></path>
  </g>
  <g transform="translate(481,4)" font-family="Arial" font-size="32" space="preserve">
   <text fill="black" text-anchor="middle" dy=".4em" transform="translate(119,25)">
    test ellipse
   </text>
  </g>
 </g>
</svg>

<svg xmlns="http://www.w3.org/2000/svg" viewBox="0 0 1200 800" preserveAspectRatio="none" width="1200" height="800">
 <path d="M0,0H1200V800H0Z" style="fill: white;"></path>
 <g>
  <g transform="translate(120,80)">
   <path d="M0,0H960V640H0Z" style="fill: white; stroke: black; stroke-width: 1;"></path>
   <g>
    <path d="M147,0v640M311,0v640M476,0v640M640,0v640M804,0v640" style="stroke: black; stroke-width: 1; stroke-dasharray: 1,2;"></path>
    <path d="M0,633h960M0,563h960M0,493h960M0,423h960M0,353h960M0,283h960M0,213h960M0,143h960M0,73h960M0,3h960" style="stroke: black; stroke-width: 1; stroke-dasharray: 1,2;"></path>
   </g>
   <svg x="0" y="0" overflow="hidden" width="960" height="640" viewBox="0 0 960 640">
    <g>
     <path d="M438,73l8,8m0,-8l-8,8m0,-4h8m-4,-4v8M429,69l8,8m0,-8l-8,8m0,-4h8m-4,-4v8M396,77l8,8m0,-8l-8,8m0,-4h8m-4,-4v8M390,83l8,8m0,-8l-8,8m0,-4h8m-4,-4v8M358,89l8,8m0,-8l-8,8m0,-4h8m-4,-4v8M338,113l8,8m0,-8l-8,8m0,-4h8m-4,-4v8M324,115l8,8m0,-8l-8,8m0,-4h8m-4,-4v8M310,129l8,8m0,-8l-8,8m0,-4h8m-4,-4v8M282,138l8,8m0,-8l-8,8m0,-4h8m-4,-4v8M246,138l8,8m0,-8l-8,8m0,-4h8m-4,-4v8M223,153l8,8m0,-8l-8,8m0,-4h8m-4,-4v8M209,175l8,8m0,-8l-8,8m0,-4h8m-4,-4v8M202,195l8,8m0,-8l-8,8m0,-4h8m-4,-4v8M195,209l8,8m0,-8l-8,8m0,-4h8m-4,-4v8M153,216l8,8m0,-8l-8,8m0,-4h8m-4,-4v8M139,231l8,8m0,-8l-8,8m0,-4h8m-4,-4v8M128,260l8,8m0,-8l-8,8m0,-4h8m-4,-4v8M138,271l8,8m0,-8l-8,8m0,-4h8m-4,-4v8M125,278l8,8m0,-8l-8,8m0,-4h8m-4,-4v8M121,298l8,8m0,-8l-8,8m0,-4h8m-4,-4v8M96,322l8,8m0,-8l-8,8m0,-4h8m-4,-4v8M100,337l8,8m0,-8l-8,8m0,-4h8m-4,-4v8M97,333l8,8m0,-8l-8,8m0,-4h8m-4,-4v8M98,360l8,8m0,-8l-8,8m0,-4h8m-4,-4v8M76,380l8,8m0,-8l-8,8m0,-4h8m-4,-4v8M86,400l8,8m0,-8l-8,8m0,-4h8m-4,-4v8M93,417l8,8m0,-8l-8,8m0,-4h8m-4,-4v8M101,420l8,8m0,-8l-8,8m0,-4h8m-4,-4v8M84,439l8,8m0,-8l-8,8m0,-4h8m-4,-4v8M113,452l8,8m0,-8l-8,8m0,-4h8m-4,-4v8M103,467l8,8m0,-8l-8,8m0,-4h8m-4,-4v8M109,475l8,8m0,-8l-8,8m0,-4h8m-4,-4v8M143,487l8,8m0,-8l-8,8m0,-4h8m-4,-4v8M156,502l8,8m0,-8l-8,8m0,-4h8m-4,-4v8M154,514l8,8m0,-8l-8,8m0,-4h8m-4,-4v8M157,527l8,8m0,-8l-8,8m0,-4h8m-4,-4v8M164,532l8,8m0,-8l-8,8m0,-4h8m-4,-4v8M188,546l8,8m0,-8l-8,8m0,-4h8m-4,-4v8M209,558l8,8m0,-8l-8,8m0,-4h8m-4,-4v8M241,545l8,8m0,-8l-8,8m0,-4h8m-4,-4v8M263,556l8,8m0,-8l-8,8m0,-4h8m-4,-4v8M274,577l8,8m0,-8l-8,8m0,-4h8m-4,-4v8M299,567l8,8m0,-8l-8,8m0,-4h8m-4,-4v8M335,563l8,8m0,-8l-8,8m0,-4h8m-4,-4v8M353,583l8,8m0,-8l-8,8m0,-4h8m-4,-4v8M379,581l8,8m0,-8l-8,8m0,-4h8m-4,-4v8M394,576l8,8m0,-8l-8,8m0,-4h8m-4,-4v8M410,571l8,8m0,-8l-8,8m0,-4h8m-4,-4v8M438,572l8,8m0,-8l-8,8m0,-4h8m-4,-4v8M459,562l8,8m0,-8l-8,8m0,-4h8m-4,-4v8M504,554l8,8m0,-8l-8,8m0,-4h8m-4,-4v8M531,563l8,8m0,-8l-8,8m0,-4h8m-4,-4v8M552,540l8,8m0,-8l-8,8m0,-4h8m-4,-4v8M574,545l8,8m0,-8l-8,8m0,-4h8m-4,-4v8M579,545l8,8m0,-8l-8,8m0,-4h8m-4,-4v8M620,519l8,8m0,-8l-8,8m0,-4h8m-4,-4v8M613,522l8,8m0,-8l-8,8m0,-4h8m-4,-4v8M667,494l8,8m0,-8l-8,8m0,-4h8m-4,-4v8M679,494l8,8m0,-8l-8,8m0,-4h8m-4,-4v8M706,470l8,8m0,-8l-8,8m0,-4h8m-4,-4v8M709,466l8,8m0,-8l-8,8m0,-4h8m-4,-4v8M734,444l8,8m0,-8l-8,8m0,-4h8m-4,-4v8M731,439l8,8m0,-8l-8,8m0,-4h8m-4,-4v8M776,425l8,8m0,-8l-8,8m0,-4h8m-4,-4v8M779,411l8,8m0,-8l-8,8m0,-4h8m-4,-4v8M809,402l8,8m0,-8l-8,8m0,-4h8m-4,-4v8M823,381l8,8m0,-8l-8,8m0,-4h8m-4,-4v8M835,352l8,8m0,-8l-8,8m0,-4h8m-4,-4v8M849,344l8,8m0,-8l-8,8m0,-4h8m-4,-4v8M827,340l8,8m0,-8l-8,8m0,-4h8m-4,-4v8M843,325l8,8m0,-8l-8,8m0,-4h8m-4,-4v8M857,308l8,8m0,-8l-8,8m0,-4h8m-4,-4v8M843,285l8,8m0,-8l-8,8m0,-4h8m-4,-4v8M876,263l8,8m0,-8l-8,8m0,-4h8m-4,-4v8M863,264l8,8m0,-8l-8,8m0,-4h8m-4,-4v8M862,232l8,8m0,-8l-8,8m0,-4h8m-4,-4v8M840,216l8,8m0,-8l-8,8m0,-4h8m-4,-4v8M868,210l8,8m0,-8l-8,8m0,-4h8m-4,-4v8M845,199l8,8m0,-8l-8,8m0,-4h8m-4,-4v8M840,176l8,8m0,-8l-8,8m0,-4h8m-4,-4v8M827,178l8,8m0,-8l-8,8m0,-4h8m-4,-4v8M837,146l8,8m0,-8l-8,8m0,-4h8m-4,-4v8M799,151l8,8m0,-8l-8,8m0,-4h8m-4,-4v8M811,130l8,8m0,-8l-8,8m0,-4h8m-4,-4v8M778,134l8,8m0,-8l-8,8m0,-4h8m-4,-4v8M791,118l8,8m0,-8l-8,8m0,-4h8m-4,-4v8M758,112l8,8m0,-8l-8,8m0,-4h8m-4,-4v8M739,86l8,8m0,-8l-8,8m0,-4h8m-4,-4v8M725,72l8,8m0,-8l-8,8m0,-4h8m-4,-4v8M709,76l8,8m0,-8l-8,8m0,-4h8m-4,-4v8M684,67l8,8m0,-8l-8,8m0,-4h8m-4,-4v8M648,65l8,8m0,-8l-8,8m0,-4h8m-4,-4v8M654,73l8,8m0,-8l-8,8m0,-4h8m-4,-4v8M630,49l8,8m0,-8l-8,8m0,-4h8m-4,-4v8M608,61l8,8m0,-8l-8,8m0,-4h8m-4,-4v8M562,49l8,8m0,-8l-8,8m0,-4h8m-4,-4v8M551,52l8,8m0,-8l-8,8m0,-4h8m-4,-4v8M540,59l8,8m0,-8l-8,8m0,-4h8m-4,-4v8M513,70l8,8m0,-8l-8,8m0,-4h8m-4,-4v8M491,75l8,8m0,-8l-8,8m0,-4h8m-4,-4v8" style="stroke: black; fill: none;"></path>
    </g>
   </svg>
   <g>
    <g transform="translate(0,640)">
     <path d="M0,0h960M24,-12V0M65,-12V0M106,-12V0M147,-24V0M188,-12V0M229,-12V0M270,-12V0M311,-24V0M352,-12V0M394,-12V0M435,-12V0M476,-24V0M517,-12V0M558,-12V0M599,-12V0M640,-24V0M681,-12V0M722,-12V0M763,-12V0M804,-24V0M846,-12V0M887,-12V0M928,-12V0" style="stroke: black; stroke-width: 1;"></path>
     <g font-family="Arial" font-size="28" space="preserve" fill="black" text-anchor="middle">
      <text dy=".8em" transform="translate(147,6)">
       -14
      </text>
      <text dy=".8em" transform="translate(311,6)">
       -12
      </text>
      <text dy=".8em" transform="translate(476,6)">
       -10
      </text>
      <text dy=".8em" transform="translate(640,6)">
       -8
      </text>
      <text dy=".8em" transform="translate(804,6)">
       -6
      </text>
     </g>
    </g>
    <g>
     <path d="M0,0v640M36,633H0M18,619H0M18,605H0M18,591H0M18,577H0M36,563H0M18,549H0M18,535H0M18,521H0M18,507H0M36,493H0M18,479H0M18,465H0M18,451H0M18,437H0M36,423H0M18,409H0M18,395H0M18,381H0M18,367H0M36,353H0M18,339H0M18,325H0M18,311H0M18,297H0M36,283H0M18,269H0M18,255H0M18,241H0M18,227H0M36,213H0M18,199H0M18,185H0M18,171H0M18,157H0M36,143H0M18,129H0M18,115H0M18,101H0M18,87H0M36,73H0M18,59H0M18,45H0M18,31H0M18,17H0M36,3H0" style="stroke: black; stroke-width: 1;"></path>
     <g font-family="Arial" font-size="28" space="preserve" fill="black" text-anchor="end">
      <text dy=".4em" transform="translate(-4,633)">
       4.5
      </text>
      <text dy=".4em" transform="translate(-4,563)">
       5
      </text>
      <text dy=".4em" transform="translate(-4,493)">
       5.5
      </text>
      <text dy=".4em" transform="translate(-4,423)">
       6
      </text>
      <text dy=".4em" transform="translate(-4,353)">
       6.5
      </text>
      <text dy=".4em" transform="translate(-4,283)">
       7
      </text>
      <text dy=".4em" transform="translate(-4,213)">
       7.5
      </text>
      <text dy=".4em" transform="translate(-4,143)">
       8
      </text>
      <text dy=".4em" transform="translate(-4,73)">
       8.5
      </text>
      <text dy=".4em" transform="translate(-4,3)">
       9
      </text>
     </g>
    </g>
   </g>
  </g>
  <g>
   <path transform="translate(597,400)" d="M386,-78l-1,-8l-1,-7l-2,-8l-2,-7l-2,-8l-3,-7l-3,-7l-3,-7l-4,-7l-4,-6l-4,-7l-5,-6l-5,-7l-6,-6l-5,-6l-6,-5l-7,-6l-7,-5l-7,-5l-7,-5l-8,-5l-8,-4l-8,-5l-9,-4l-9,-4l-9,-3l-9,-4l-10,-3l-9,-3l-10,-3l-11,-2l-10,-2l-11,-2l-10,-2l-11,-1l-11,-2l-12,-1h-11l-12,-1h-11h-12l-12,1h-12l-12,1l-12,1l-12,1l-12,2l-12,2l-12,2l-12,2l-12,3l-12,3l-13,3l-12,3l-11,3l-12,4l-12,4l-12,4l-11,5l-12,4l-11,5l-11,5l-11,6l-11,5l-10,6l-11,5l-10,6l-10,7l-10,6l-10,6l-9,7l-9,7l-9,7l-9,7l-8,7l-8,7l-8,8l-7,7l-7,8l-7,7l-7,8l-6,8l-6,8l-5,8l-5,8l-5,8l-5,8l-4,8l-4,8l-3,8l-3,8l-3,9l-2,8l-2,8l-2,8l-1,8l-1,8v8v8v7l1,8l1,8l2,7l2,8l2,7l2,7l3,7l4,7l3,7l5,7l4,6l5,7l5,6l5,6l6,6l6,6l7,5l7,6l7,5l7,5l8,4l8,5l8,4l9,4l8,4l10,4l9,3l9,3l10,3l10,3l10,2l11,3l11,2l10,1l11,2l11,1l12,1l11,1h12h11h12h12l12,-1h12l12,-2l12,-1l12,-1l12,-2l12,-2l12,-3l12,-2l12,-3l12,-3l12,-3l12,-4l12,-4l12,-4l12,-4l11,-4l12,-5l11,-5l11,-5l11,-5l11,-6l10,-5l11,-6l10,-6l10,-6l10,-6l10,-7l9,-7l9,-6l9,-7l8,-7l9,-7l8,-8l8,-7l7,-8l7,-7l7,-8l7,-8l6,-7l6,-8l5,-8l5,-8l5,-8l5,-8l4,-9l4,-8l3,-8l3,-8l3,-8l2,-8l2,-8l1,-8l2,-8v-8l1,-8v-8Z" style="stroke: black; stroke-width: 1; fill: none;"></path>
  </g>
  <g transform="translate(481,4)" font-family="Arial" font-size="32" space="preserve">
   <text fill="black" text-anchor="middle" dy=".4em" transform="translate(119,25)">
    test ellipse
   </text>
  </g>
 </g>
</svg>
